X:780
T:Dunkeld Steeple
C:Niel Gow
B:The Beauties of Niel Gow (c1819)
N:Last few notes changed from "dfBc ceAc|dcBA A4" by N.G.
Z:Nigel Gatherer
M:4/4
L:1/8
K:A
A,CEA cefg|agfe dcBA|dfBd ceAc|dcBA G2 FE|A,CEA cefg|agfe dcBA|
dfBd ceAc|dBAG A4::agae fedc|dfBd c2 BA|dfBd ceAc|dcBA G2 FE|
agae fedc|dfBd c2 BA|dfBd ceAc|dBAG A4:|
